X:1
T:Si j'avais l'heur
T:Si j'avais l'heur
T:Cornelius Canis
C:Cornelius Canis
%%score [ 1 [ 2 3 4 ] ]
L:1/8
Q:1/4=84
M:2/2
K:F
V:1 treble nm="Superius" snm="S"
V:2 treble-8 nm="Tenor 1" snm="T 1"
V:3 treble-8 nm="Tenor 2" snm="T 2"
V:4 treble-8 nm="Tenor 3" snm="T 3"
V:1
 z8 | B4 f2 c2 | d2 f4 e2 | d2 c3 d ed/e/ | f2 e3 d d2- | d2 c2 d2 B2- | B2 A2 G2 F2- | %7
w: |Si j'a- vois|l'heur d'ob- te-|nir al- le- * * *|gean- * * *|* * ce, d'ob|_ te- nir al-|
 FG A2 B2 A2- | AB c2 B2 A2- | AG G4 F2 | G8 | z2 G2 B3 c | d4 z2 A2 | c2 c2 G2 G2 | B3 A/G/ F3 G | %15
w: * * le- * gean-|||ce|de mez dou-|leurs et|de ma- grant tri-|stes- * * * *|
 A2 B2 c2 B2- | BA d4 c2 | d4 z2 d2 | d2 c2 d2 d2 | G2 c3 A B2 | A3 G F2 G2 | D4 z2 G2 | %22
w: ||se, je|jou- y- rois de-|sor- mais de li-|es- * * *|se, je|
 G2 F2 G3 A | B2 A2 B2 c2- | cB B4 A2 | B4 z2 B2 |: B2 G2 A4 | G2 A4 GF | G4 F2 D2 | F2 F2 C3 D | %30
w: jou- y- rois de-|sor- mais de li-|* * es- *|se, et|si scau- rois|que c'est d'a- *||* voir plai- *|
 EF G3 A B2 | A2 G4 F2 |1 G4 z2 B2 :|2 A2 G4 F2 || G8 |] %35
w: * * san- * *||ce, et|(san)- * *|ce.|
V:2
 g4 b2 f2 | g2 b4 a2 | g2 f2 a2 g2 | f3 g af g2 | f2 g3 fed | e4 d4- | d4 z4 | z4 z2 c2- | %8
w: Si j'a- vois|l'heur d'ob- te-|nir al- le- *|gean- * * * *||* ce,|_|d'ob|
 c2 c2 d2 f2 | d2 e2 d4- | d4 z4 | G2 B3 c d2 | z2 d2 f3 g | a4 z2 e2 | g2 g2 d2 d2 | f2 d2 a2 f2 | %16
w: _ te- nit al-|le- gean- ce|_|de mez dou- leurs,|de mez dou-|leurs et|de ma grant tris-|tes- * * *|
 b4 a4 | z2 a2 a2 g2 | a2 a2 d2 g2- | ge f2 e2 g2 | f2 e2 dc BA | Bc d4 c2 | d4 G2 B2- | Bc d4 c2 | %24
w: * se,|je jou- y-|rois de- sor- mais|_ _ _ de li-|es- * * * * *||se, je- jou-|* y- rois de|
"^b" f2 e2 f4 | d8 |: z2 _e2 c2 d2- | d2 cB c2 d2- | d2 c2 d2 d2 | d2 d2 A2 c2- | cdef g2 d2 | %31
w: li- * es-|se,|et si scau-|* * * rois que-|_ _ c'est d'a-|voir plai- san- *|* * * * ce, d'a-|
 _e2 c2 d3 c |1 B3 A G4 :|2 _e2 c2 d4 || d8 |] %35
w: voir pla- san- *|* * ce,|voir plai- san-|ce.|
V:3
 z8 | z8 | z2 d2 f2 c2 | d2 f4 e2 | d2 c2 B4 | A4 z4 | z4 d4 | f2 c2 d2 f2- | f2 e2 d2 c2 | %9
w: ||Si j'a- vois|l'heur d'ob- *|* * te-|nir,|si|j'a- vois l'heur d'ob-|* te- nir al-|
 B2 c2 A4 | G4 z2 G2 | B3 c d4 | G2 B3 c d2 | z4 e2 g2 | g2 d2 d2 f2- | fe/d/ g2 f2 d2 | g3 f e4 | %17
w: le- * gean-|ce de|mez dou- leurs,|de mez dou- leurs|et de|ma grant tris- tes-|||
 d3 c B4 | A4 z4 | z4 z2 d2 | d2 c2 d2 d2 | G2 B4 AG | A2 F2 B3 c | de f4 e2 | d2 cB c4 | %25
w: |se,|je|jou- y- rois de|li- es- * *|se, je jou- *|y- * rois de|li- * * es-|
 B2 d2 d2 B2 |: d2 c4 A2 | B2 A4 B2- | B2 AG A4- | A4 z2 A2 | c2 c2 G3 A/B/ | cB AG A4 |1 %32
w: se, et si scau-|rois que c'est|d'a- voir plai-|* san- * ce,|_ d'a-|voir plai- san- * *||
 G2 d2 d2 B2 :|2 cB AG A4 || G8 |] %35
w: ce, et si scau-|(san)- * * * *|ce.|
V:4
 z8 | z8 | z8 | z8 | z8 | z4 G4 | B2 F2 G2 B2- | B2 A2 G2 F2- | FG A2 B2 F2 | G2 C2 D4 | %10
w: |||||Si|j'a- vois l'heur d'ob-|* te- nir al-|* * le- * gean-|* * ce|
 z2 G2 B3 c | d4 z2 G2 | B3 c d4 | z2 A2 c2 c2 | G2 G2 B3 A/G/ | F2 G2 A2 B2 | G4 A4 | D4 z4 | z8 | %19
w: de mez dou-|leurs, de|mez dou- leurs|et de ma|grant tris- tes- * *|||se,||
 z2 A2 A2 G2 | A2 A2 D2 G2- |"^b""^b" GF ED E4 | D4 z2 G2 | G2 F2 G2 A2 | B2 G2 F4 | B,4 z2 G2 |: %26
w: je jou- y-|rois de- sor- mais|_ _ de _ lies-|se, je|jou- y- rois de|li- * es-|se, et|
 G2 _E2 F4 |"^#" _E2 F4 ED |"^b" E4 D4 |"^#" z2 D2 F2 F2 | C3 D EF G2 |"^b" C2 E2 D4 |1 %32
w: si scau- rois|que c'est d'a- *|* voir,|d'a- voir plai-|san- * * * *||
 G4 z2 G2 :|2"^b" C2 E2 D4 || G8 |] %35
w: ce, et|(san)- * *|ce.|

